assets/images/icons/cf_icon_modes_grey.svg

<svg enable-background="new 0 0 141.7 141.7" viewBox="0 0 141.7 141.7" xmlns="http://www.w3.org/2000/svg"><g fill="#818181"><path d="m44.2 62.8h53.2c15.1 0 27.4-12.3 27.4-27.4s-12.3-27.4-27.4-27.4h-53.2c-15.2 0-27.4 12.3-27.4 27.4s12.2 27.4 27.4 27.4zm0-44.9c9.7 0 17.5 7.8 17.5 17.5s-7.8 17.5-17.5 17.5-17.5-7.8-17.5-17.5 7.8-17.5 17.5-17.5z"/><path d="m97.6 79h-53.2c-15.1 0-27.4 12.2-27.4 27.4s12.3 27.4 27.4 27.4h53.2c15.1 0 27.4-12.3 27.4-27.4s-12.2-27.4-27.4-27.4zm0 44.9c-9.7 0-17.5-7.8-17.5-17.5s7.9-17.5 17.5-17.5c9.7 0 17.5 7.8 17.5 17.5s-7.8 17.5-17.5 17.5z"/></g></svg>

<?xml version="1.0" encoding="utf-8"?>
<!-- Generator: Adobe Illustrator 18.1.1, SVG Export Plug-In . SVG Version: 6.00 Build 0)  -->
<svg version="1.1" id="Capa_1" xmlns="http://www.w3.org/2000/svg" xmlns:xlink="http://www.w3.org/1999/xlink" x="0px" y="0px"
	 viewBox="0 0 141.7 141.7" enable-background="new 0 0 141.7 141.7" xml:space="preserve">
<g>
	<g>
		<g>
			<path fill="#818181" d="M44.2,62.8h53.2c15.1,0,27.4-12.3,27.4-27.4S112.5,8,97.4,8H44.2C29,8,16.8,20.3,16.8,35.4
				S29,62.8,44.2,62.8z M44.2,17.9c9.7,0,17.5,7.8,17.5,17.5s-7.8,17.5-17.5,17.5s-17.5-7.8-17.5-17.5S34.5,17.9,44.2,17.9z"/>
			<path fill="#818181" d="M97.6,79H44.4C29.3,79,17,91.2,17,106.4s12.3,27.4,27.4,27.4h53.2c15.1,0,27.4-12.3,27.4-27.4
				S112.8,79,97.6,79z M97.6,123.9c-9.7,0-17.5-7.8-17.5-17.5S88,88.9,97.6,88.9c9.7,0,17.5,7.8,17.5,17.5S107.3,123.9,97.6,123.9z"
				/>
		</g>
	</g>
</g>
</svg>
